front/src/Assets/image/payment/ic_output.svg

<svg width="14" height="14" viewBox="0 0 14 14" fill="none" xmlns="http://www.w3.org/2000/svg">
<g clip-path="url(#clip0_28_1233)">
<path d="M4.74277 1.48856C4.89329 1.79964 4.76033 2.17594 4.44926 2.32645C3.58378 2.74289 2.85125 3.39012 2.32945 4.20041C1.79511 5.03078 1.51163 5.9941 1.51163 6.98752C1.51163 9.83735 3.82962 12.1553 6.67945 12.1553C9.52928 12.1553 11.8473 9.83735 11.8473 6.98752C11.8473 5.9941 11.5638 5.03078 11.032 4.19791C10.5127 3.38761 9.77763 2.74038 8.91215 2.32395C8.60108 2.17343 8.46812 1.79964 8.61864 1.48606C8.76916 1.17498 9.14294 1.04203 9.45653 1.19254C10.5327 1.70933 11.4434 2.51209 12.0881 3.52057C12.7504 4.55413 13.1016 5.75327 13.1016 6.98752C13.1016 8.70344 12.4343 10.3165 11.2201 11.5282C10.0084 12.7424 8.39537 13.4097 6.67945 13.4097C4.96353 13.4097 3.35047 12.7424 2.13879 11.5282C0.924608 10.314 0.257307 8.70344 0.257307 6.98752C0.257307 5.75327 0.608518 4.55413 1.27331 3.52057C1.92054 2.5146 2.83118 1.70933 3.90488 1.19254C4.21846 1.04453 4.59225 1.17498 4.74277 1.48856Z" fill="#EF9B9B"/>
<path d="M4.23859 6.65366C4.11566 6.53074 4.05546 6.37018 4.05546 6.20963C4.05546 6.04908 4.11566 5.88852 4.23859 5.7656L5.81653 4.18766C6.04733 3.95686 6.35338 3.83143 6.677 3.83143C7.00061 3.83143 7.30918 3.95937 7.53746 4.18766L9.1154 5.7656C9.36125 6.01145 9.36125 6.40781 9.1154 6.65366C8.86956 6.89951 8.47319 6.89951 8.22734 6.65366L7.30165 5.72797V9.29276C7.30165 9.63895 7.02068 9.91992 6.67449 9.91992C6.32829 9.91992 6.04732 9.63895 6.04732 9.29276V5.72546L5.12163 6.65115C4.8808 6.897 4.48444 6.897 4.23859 6.65366Z" fill="#EF9B9B"/>
</g>
<defs>
<clipPath id="clip0_28_1233">
<rect width="12.8443" height="12.8443" fill="white" transform="matrix(0 -1 -1 0 13.1016 13.4097)"/>
</clipPath>
</defs>
</svg>

<svg xmlns="http://www.w3.org/2000/svg" fill="none" viewBox="0 0 14 14">
  <g fill="#EF9B9B" clip-path="url(#clip0_28_1233)">
    <path d="M4.743 1.489a.63.63 0 01-.294.837A5.203 5.203 0 002.33 4.2a5.139 5.139 0 00-.817 2.788 5.173 5.173 0 005.167 5.167 5.173 5.173 0 004.353-7.957 5.187 5.187 0 00-2.12-1.874.628.628 0 01.545-1.131 6.414 6.414 0 013.645 5.795 6.371 6.371 0 01-1.882 4.54 6.371 6.371 0 01-4.54 1.882 6.371 6.371 0 01-4.541-1.882 6.376 6.376 0 01-1.882-4.54 6.4 6.4 0 011.016-3.467 6.463 6.463 0 012.632-2.328.63.63 0 01.838.296z"/>
    <path d="M4.239 6.654a.625.625 0 01-.184-.444c0-.16.06-.321.184-.444l1.578-1.578a1.215 1.215 0 011.72 0l1.578 1.578a.627.627 0 11-.888.888l-.925-.926v3.565a.627.627 0 01-1.255 0V5.725l-.925.926a.623.623 0 01-.883.003z"/>
  </g>
  <defs>
    <clipPath id="clip0_28_1233">
      <path fill="#fff" d="M0 0h12.84v12.84H0z" transform="matrix(0 -1 -1 0 13.102 13.41)"/>
    </clipPath>
  </defs>
</svg>
